src/assets/images/me.svg

<svg viewBox="0 0 30 46" xmlns="http://www.w3.org/2000/svg"><g fill="#000" fill-rule="nonzero"><path d="m7.04849914 35.3013105c.14011848-.3125348.71809456-3.0662148 1.73392826-8.2610401l-.13589901-.2598247c-.50902696-.9732064-.68345824-2.0869391-.49635152-3.169173l1.94809863-11.2678924c.4747617-2.2289202 1.6810765-3.3433803 3.6189443-3.3433803s3.4973511.92378854 4.6784497 2.7713656l4.0810911 4.2413454c.2258265.234694.5518.3447074.8736593.2948528l4.4554899-.6901359c1.1202202-.0557937 1.8295002.4351074 2.12784 1.4727031.2983399 1.0375958-.4109401 1.7144896-2.12784 2.0306815l-5.8096696 1.220648c-.3345365.0702882-.6817985-.0351782-.9207434-.2796375l-3.1663927-3.239467-.8879496 8.8137001 5.8158408 7.4682779c.6842106.9174619.6842106 2.6818337 0 5.2931153-.6842107 2.6112816-1.1434988 4.4652659-1.3778645 5.561953-.6262737 1.4815391-1.6474275 2.1132589-3.0634613 1.8951595-1.4160337-.2180993-2.0441072-1.0277737-1.8842204-2.4290232l1.6695648-7.8276995-4.4637941-5.9804294-1.6053563 7.0796768-3.94340673 7.5579038c-.8989891 1.499191-2.07214629 2.0323815-3.51947158 1.5995715-1.44732529-.4328099-1.94190529-1.4311352-1.48374-2.9949759 2.44871749-4.7263155 3.74313548-7.2457406 3.88325395-7.5582754z"/><path d="m26.5 11.5v3" stroke="#000" stroke-linecap="square"/><path d="m26.5 20.5v24" stroke="#000" stroke-linecap="square"/><circle cx="16" cy="4" r="4"/><path d="m1.97139651 17c.47238918-.8343727 1.02596493-1.1747291 1.66072724-1.0210692.73727792-3.9859539 2.02741709-5.9789308 3.87041752-5.9789308 1.84300042 0 2.66596883.5890577 2.46890515 1.7671732l-1.52225933 10.0763318c-.22210731 1.8365351-1.39408777 2.5000344-3.51594139 1.9904978-1.35199097-.3246636-2.38463247-.5458936-3.0979245-.6636899l-.00000025.0000015c-.5144732-.0849624-.87730718-.5509836-.83353393-1.0705846.22348412-2.6528198.54668728-4.3527297.96960949-5.0997298z" transform="matrix(.9998477 .01745241 -.01745241 .9998477 .297529 -.093399)"/></g></svg>

<?xml version="1.0" encoding="UTF-8"?>
<svg viewBox="0 0 30 46" version="1.1" xmlns="http://www.w3.org/2000/svg" xmlns:xlink="http://www.w3.org/1999/xlink">
    <g id="me" stroke="none" stroke-width="1" fill="none" fill-rule="evenodd">
        <path d="M7.04849914,35.3013105 C7.18861762,34.9887757 7.7665937,32.2350957 8.7824274,27.0402704 L8.64652839,26.7804457 C8.13750143,25.8072393 7.96307015,24.6935066 8.15017687,23.6112727 L10.0982755,12.3433803 C10.5730372,10.1144601 11.779352,9 13.7172198,9 C15.6550876,9 17.2145709,9.92378854 18.3956695,11.7713656 L22.4767606,16.012711 C22.7025871,16.247405 23.0285606,16.3574184 23.3504199,16.3075638 L27.8059098,15.6174279 C28.92613,15.5616342 29.63541,16.0525353 29.9337498,17.090131 C30.2320897,18.1277268 29.5228097,18.8046206 27.8059098,19.1208125 L21.9962402,20.3414605 C21.6617037,20.4117487 21.3144417,20.3062823 21.0754968,20.061823 L17.9091041,16.822356 L17.0211545,25.6360561 L22.8369953,33.104334 C23.5212059,34.0217959 23.5212059,35.7861677 22.8369953,38.3974493 C22.1527846,41.0087309 21.6934965,42.8627152 21.4591308,43.9594023 C20.8328571,45.4409414 19.8117033,46.0726612 18.3956695,45.8545618 C16.9796358,45.6364625 16.3515623,44.8267881 16.5114491,43.4255386 L18.1810139,35.5978391 L13.7172198,29.6174097 L12.1118635,36.6970865 L8.16845677,44.2549903 C7.26946767,45.7541813 6.09631048,46.2873718 4.64898519,45.8545618 C3.2016599,45.4217519 2.7070799,44.4234266 3.16524519,42.8595859 C5.61396268,38.1332704 6.90838067,35.6138453 7.04849914,35.3013105 Z" id="Path-2" fill="#000000" fill-rule="nonzero"></path>
        <path d="M26.5,11.5 L26.5,14.5" id="Line" stroke="#000000" fill="#000000" fill-rule="nonzero" stroke-linecap="square"></path>
        <path d="M26.5,20.5 L26.5,44.5" id="Line" stroke="#000000" fill="#000000" fill-rule="nonzero" stroke-linecap="square"></path>
        <circle id="Oval" fill="#000000" fill-rule="nonzero" cx="16" cy="4" r="4"></circle>
        <path d="M1.97139651,17 C2.44378569,16.1656273 2.99736144,15.8252709 3.63212375,15.9789308 C4.36940167,11.9929769 5.65954084,10 7.50254127,10 C9.34554169,10 10.1685101,10.5890577 9.97144642,11.7671732 L8.44918709,21.843505 C8.22707978,23.6800401 7.05509932,24.3435394 4.9332457,23.8340028 C3.58125473,23.5093392 2.54861323,23.2881092 1.8353212,23.1703129 L1.83532095,23.1703144 C1.32084775,23.085352 0.958013765,22.6193308 1.00178702,22.0997298 C1.22527114,19.44691 1.5484743,17.7470001 1.97139651,17 Z" id="Path-3" fill="#000000" fill-rule="nonzero" transform="translate(5.500000, 17.000000) rotate(1.000000) translate(-5.500000, -17.000000) "></path>
    </g>
</svg>
